Catalina-dark/actions/22/games-config-tiles.svg

<svg xmlns="http://www.w3.org/2000/svg" viewBox="0 0 22 22">
  <defs id="defs3051">
    <style type="text/css" id="current-color-scheme">
      .ColorScheme-Text {
        color:#f2f2f2
      }
      </style>
  </defs>
 <path 
     style="fill:currentColor;fill-opacity:1;stroke:none"      
	 class="ColorScheme-Text"
        d="M 3.5 3 C 3.223 3 3 3.223 3 3.5 L 3 18.5 C 3 18.777 3.223 19 3.5 19 L 18.5 19 C 18.777 19 19 18.777 19 18.5 L 19 3.5 C 19 3.223 18.777 3 18.5 3 L 3.5 3 z M 6.2675781 6 L 15.707031 6 C 15.851767 6 15.96875 6.1169826 15.96875 6.2617188 L 15.96875 7.6074219 C 15.96875 7.752158 15.851767 7.8671875 15.707031 7.8671875 L 6.2675781 7.8671875 C 6.122842 7.8671875 6.0058594 7.752158 6.0058594 7.6074219 L 6.0058594 6.2617188 C 6.0058594 6.1169826 6.122842 6 6.2675781 6 z M 6.2773438 8.7695312 L 15.71875 8.7695312 C 15.863486 8.7695312 15.978516 8.8865139 15.978516 9.03125 L 15.978516 10.376953 C 15.978516 10.521689 15.863486 10.638672 15.71875 10.638672 L 6.2773438 10.638672 C 6.1326076 10.638672 6.015625 10.521689 6.015625 10.376953 L 6.015625 9.03125 C 6.015625 8.8865139 6.1326076 8.7695312 6.2773438 8.7695312 z M 6.2929688 11.402344 L 15.732422 11.402344 C 15.877158 11.402344 15.994141 11.517373 15.994141 11.662109 L 15.994141 13.007812 C 15.994141 13.152549 15.877158 13.269531 15.732422 13.269531 L 6.2929688 13.269531 C 6.1482326 13.269531 6.03125 13.152549 6.03125 13.007812 L 6.03125 11.662109 C 6.03125 11.517373 6.1482326 11.402344 6.2929688 11.402344 z M 6.2714844 14.132812 L 15.712891 14.132812 C 15.857627 14.132812 15.974609 14.247842 15.974609 14.392578 L 15.974609 15.738281 C 15.974609 15.883017 15.857627 16 15.712891 16 L 6.2714844 16 C 6.1267482 16 6.0117188 15.883017 6.0117188 15.738281 L 6.0117188 14.392578 C 6.0117188 14.247842 6.1267482 14.132812 6.2714844 14.132812 z "
     />
</svg>

<svg width="22" height="22" viewBox="3 3 16 16" xmlns="http://www.w3.org/2000/svg">
<defs>
<style id="current-color-scheme" type="text/css">.ColorScheme-Text {
        color:#f2f2f2
      }</style>
</defs>
<path class="ColorScheme-Text" d="m3.5 3c-0.277 0-0.5 0.223-0.5 0.5v15c0 0.277 0.223 0.5 0.5 0.5h15c0.277 0 0.5-0.223 0.5-0.5v-15c0-0.277-0.223-0.5-0.5-0.5h-15zm2.7676 3h9.4395c0.14474 0 0.26172 0.11698 0.26172 0.26172v1.3457c0 0.14474-0.11698 0.25977-0.26172 0.25977h-9.4395c-0.14474 0-0.26172-0.11503-0.26172-0.25977v-1.3457c0-0.14474 0.11698-0.26172 0.26172-0.26172zm0.0097657 2.7695h9.4414c0.14474 0 0.25977 0.11698 0.25977 0.26172v1.3457c0 0.14474-0.11503 0.26172-0.25977 0.26172h-9.4414c-0.14474 0-0.26172-0.11698-0.26172-0.26172v-1.3457c0-0.14474 0.11698-0.26172 0.26172-0.26172zm0.015625 2.6328h9.4395c0.14474 0 0.26172 0.11503 0.26172 0.25976v1.3457c0 0.14474-0.11698 0.26172-0.26172 0.26172h-9.4395c-0.14474 0-0.26172-0.11698-0.26172-0.26172v-1.3457c0-0.14474 0.11698-0.25976 0.26172-0.25976zm-0.021484 2.7305h9.4414c0.14474 0 0.26172 0.11503 0.26172 0.25977v1.3457c0 0.14474-0.11698 0.26172-0.26172 0.26172h-9.4414c-0.14474 0-0.25977-0.11698-0.25977-0.26172v-1.3457c0-0.14474 0.11503-0.25977 0.25977-0.25977z" fill="currentColor"/>
</svg>
